X:500
M:C
L:1/8
K:B_
e|d>ef>g f<d f2|d>fb>g f<d c2|d>ef>g f>g d<b|f<d d>B c2B:|
dc/B/ f>d ~c2 B>d|F>Bd>B F<B D2|dc/B/ f>d c>B G<B|

